X: 28676
T: Mussels In The Corner
R: polka
M: 2/4
K: Gmajor
|:g>f ed|B/c/d e2|dB GA|BA A2|
g>f ed|B/c/d e2|dB GA|1 BG G2:|2 BG GB/c/||
|:dB GA|Bd e2|dB GA|BA AB/c/|
dB GA|Bd e2|dB GA|1 BG GB/c/:|2 BG G2||

